X: 26491
T: Michael Gorman's
R: slip jig
M: 9/8
K: Dmajor
|:F3 A2 F A2 F|G3 B2 B B2 A|F2 A A2 F A3|Bcd A2 G FED:|
|:d3 f2 d c2 A|B2 e e2 d cBA|1 d3 f2 d c2 A|
Bcd A2 G FED:|2 f2 d e2 c d3|A2 B A2 G FED||

